; generated by Slic3r Prusa Edition 1.41.3+win64 on 2020-05-13 at 11:37:13

; 

; external perimeters extrusion width = 0.45mm
; perimeters extrusion width = 0.45mm
; infill extrusion width = 0.45mm
; solid infill extrusion width = 0.45mm
; top infill extrusion width = 0.40mm
; support material extrusion width = 0.35mm
; first layer extrusion width = 0.42mm

; external perimeters extrusion width = 0.45mm
; perimeters extrusion width = 0.45mm
; infill extrusion width = 0.45mm
; solid infill extrusion width = 0.45mm
; top infill extrusion width = 0.40mm
; support material extrusion width = 0.35mm
; first layer extrusion width = 0.42mm

M73 P0 R6
M73 Q0 S6
M201 X1000 Y1000 Z1000 E8000 ; sets maximum accelerations, mm/sec^2
M203 X200 Y200 Z12 E120 ; sets maximum feedrates, mm/sec
M204 P1250 R1250 T1250 ; sets acceleration (P, T) and retract acceleration (R), mm/sec^2
M205 X8.00 Y8.00 Z0.40 E1.50 ; sets the jerk limits, mm/sec
M205 S0 T0 ; sets the minimum extruding and travel feed rate, mm/sec
M107
M107
M115 U3.8.1 ; tell printer latest fw version
M83  ; extruder relative mode
M104 S215 ; set extruder temp
M140 S60 ; set bed temp
M190 S60 ; wait for bed temp
M109 S215 ; wait for extruder temp
G28 W ; home all without mesh bed level
G80 ; mesh bed leveling
G21 ; set units to millimeters

; Send the filament type to the MMU2.0 unit.
; E stands for extruder number, F stands for filament type (0: default; 1:flex; 2: PVA)
M403 E0 F0
M403 E1 F0
M403 E2 F0
M403 E3 F0
M403 E4 F0


;go outside print area
G1 Y-3.0 F1000.0
G1 Z0.4 F1000.0
; select extruder
T0
; initial load
G1 X55.0 E32.0 F1073.0
M73 Q5 S6
M73 P5 R6
G1 X5.0 E32.0 F1800.0
G1 X55.0 E8.0 F2000.0
G1 Z0.3 F1000.0
G92 E0.0
G1 X240.0 E25.0  F2200.0
G1 Y-2.0 F1000.0
G1 X55.0 E25 F1400.0
G1 Z0.20 F1000.0
G1 X5.0 E4.0 F1000.0
G92 E0.0


M221 S95
G90 ; use absolute coordinates
M83 ; use relative distances for extrusion
G92 E0.0
G21 ; set units to millimeters
G90 ; use absolute coordinates
M83 ; use relative distances for extrusion
T0
M900 K30 ; Filament gcode
G1 Z0.200 F10800.000
;BEFORE_LAYER_CHANGE
G92 E0.0
;0.2


G1 E-0.80000 F2100.00000
G1 Z0.800 F10800.000
G1 Z0.200
;AFTER_LAYER_CHANGE
;0.2
M900 K0
G1 E-2.20000 F2100.00000
G1 Z0.800 F10800.000
G1 X243.890 Y136.687
G1 Z0.200
G1 E3.00000 F2100.00000
;-------------------------------------
; CP WIPE TOWER FIRST LAYER BRIM START
G1 X243.890 Y155.027 E1.0456 F2400
G1 X241.390 Y155.527  F7000
G1 Y136.187 E0.8085 F2100
G1 X180.390 E2.5502
G1 Y155.527 E0.8085
G1 X241.390 E2.5502
G1 X241.890 Y156.027  F7000
G1 Y135.687 E0.8504 F2100
G1 X179.890 E2.5920
G1 Y156.027 E0.8504
G1 X241.890 E2.5920
G1 X242.390 Y156.527  F7000
G1 Y135.187 E0.8922 F2100
G1 X179.390 E2.6338
G1 Y156.527 E0.8922
G1 X242.390 E2.6338
G1 X242.890 Y157.027  F7000
G1 Y134.687 E0.9340 F2100
G1 X178.890 E2.6756
G1 Y157.027 E0.9340
G1 X242.890 E2.6756
G1 X240.890 Y155.027  F7000
G1 X180.890
G1 X240.890
; CP WIPE TOWER FIRST LAYER BRIM END
;-----------------------------------
G1 X240.390 Y137.187  F7200
;--------------------
; CP EMPTY GRID START
; layer #1
G1 X240.890
G1 Y136.687
G1 Y155.027 E0.6970 F1450
G1 X180.890 E2.2804
G1 Y136.687 E0.6970
G1 X240.890 E2.2804
G1 X240.390
G1 Y137.187
G1 Y154.527 E0.6590
G1 X181.390 E2.2424
G1 Y137.187 E0.6590
G1 X240.390 E2.2424
G1 Y154.527
G1 X239.890 Y154.001  E0.0276
G1 X181.890 E2.2044
M73 Q21 S5
G1 Y153.474 E0.0200
G1 X239.890 E2.2044
M73 P22 R5
G1 Y152.948 E0.0200
G1 X181.890 E2.2044
G1 Y152.422 E0.0200
G1 X239.890 E2.2044
G1 Y151.896 E0.0200
G1 X181.890 E2.2044
G1 Y151.369 E0.0200
G1 X239.890 E2.2044
G1 Y150.843 E0.0200
G1 X181.890 E2.2044
G1 Y150.317 E0.0200
G1 X239.890 E2.2044
G1 Y149.791 E0.0200
G1 X181.890 E2.2044
G1 Y149.264 E0.0200
G1 X239.890 E2.2044
G1 Y148.738 E0.0200
G1 X181.890 E2.2044
G1 Y148.212 E0.0200
G1 X239.890 E2.2044
G1 Y147.686 E0.0200
G1 X181.890 E2.2044
G1 Y147.159 E0.0200
G1 X239.890 E2.2044
G1 Y146.633 E0.0200
G1 X181.890 E2.2044
G1 Y146.107 E0.0200
G1 X239.890 E2.2044
G1 Y145.581 E0.0200
G1 X181.890 E2.2044
G1 Y145.054 E0.0200
G1 X239.890 E2.2044
G1 Y144.528 E0.0200
G1 X181.890 E2.2044
G1 Y144.002 E0.0200
G1 X239.890 E2.2044
G1 Y143.476 E0.0200
G1 X181.890 E2.2044
G1 Y142.949 E0.0200
G1 X239.890 E2.2044
G1 Y142.423 E0.0200
G1 X181.890 E2.2044
G1 Y141.897 E0.0200
G1 X239.890 E2.2044
G1 Y141.371 E0.0200
G1 X181.890 E2.2044
G1 Y140.844 E0.0200
G1 X239.890 E2.2044
M73 Q38 S4
G1 Y140.318 E0.0200
G1 X181.890 E2.2044
M73 P39 R4
G1 Y139.792 E0.0200
G1 X239.890 E2.2044
G1 Y139.266 E0.0200
G1 X181.890 E2.2044
G1 Y138.739 E0.0200
G1 X239.890 E2.2044
G1 Y138.213 E0.0200
G1 X181.890 E2.2044
G1 Y137.687 E0.0200
G1 X239.890 E2.2044
G1 X181.890
; CP EMPTY GRID END
;------------------







M900 K30 ; Filament gcode
G1 F8640
G1 X178.599 Y137.687 E-0.76000
G1 E-0.04000 F2100.00000
G1 Z0.800 F10800.000
G1 X140.517 Y109.585
G1 Z0.200
G1 E0.80000 F2100.00000
M204 S1000
G1 F1200
G1 X140.254 Y110.454 E0.02846
G1 X139.866 Y111.122 E0.02421
G1 X139.230 Y111.780 E0.02871
G1 X138.569 Y112.202 E0.02458
G1 X137.748 Y112.484 E0.02723
G1 X137.035 Y112.565 E0.02248
G1 X112.854 Y112.561 E0.75820
G1 X111.894 Y112.390 E0.03056
G1 X111.011 Y111.959 E0.03080
G1 X110.360 Y111.394 E0.02704
G1 X109.798 Y110.569 E0.03129
G1 X109.557 Y109.919 E0.02174
G1 X109.436 Y109.087 E0.02637
G1 X109.468 Y100.516 E0.26872
G1 X109.667 Y99.738 E0.02519
G1 X110.111 Y98.910 E0.02945
G1 X110.758 Y98.230 E0.02944
G1 X111.431 Y97.798 E0.02507
G1 X112.248 Y97.517 E0.02710
G1 X112.961 Y97.435 E0.02248
G1 X137.004 Y97.434 E0.75386
G1 X137.613 Y97.488 E0.01916
G1 X138.240 Y97.658 E0.02038
G1 X138.792 Y97.920 E0.01914
G1 X139.409 Y98.373 E0.02402
G1 X139.847 Y98.854 E0.02038
G1 X140.174 Y99.374 E0.01927
G1 X140.404 Y99.940 E0.01915
G1 X140.539 Y100.572 E0.02026
G1 X140.517 Y109.525 E0.28073
; PURGING FINISHED
G1 F8640
G1 X140.254 Y110.454 E-0.22290
G1 X139.866 Y111.122 E-0.17828
G1 X139.230 Y111.780 E-0.21142
G1 X138.691 Y112.124 E-0.14740
G1 E-0.04000 F2100.00000
G1 Z0.800 F10800.000
G1 X137.129 Y109.387
G1 Z0.200
G1 E0.80000 F2100.00000
G1 F1200
G1 X136.977 Y109.413 E0.00484
G1 X129.046 Y109.413 E0.24866
G1 X128.851 Y109.382 E0.00618
G1 X128.694 Y109.273 E0.00600
G1 X128.613 Y109.129 E0.00517
G1 X128.587 Y108.977 E0.00484
G1 X128.587 Y101.046 E0.24866
G1 X128.618 Y100.851 E0.00618
G1 X128.713 Y100.713 E0.00526
G1 X128.851 Y100.618 E0.00526
G1 X129.046 Y100.587 E0.00617
G1 X137.057 Y100.596 E0.25118
G1 X137.165 Y100.625 E0.00351
G1 X137.306 Y100.727 E0.00545
G1 X137.386 Y100.875 E0.00526
G1 X137.413 Y101.046 E0.00545
G1 X137.413 Y108.954 E0.24794
G1 X137.375 Y109.165 E0.00673
G1 X137.273 Y109.306 E0.00545
G1 X137.182 Y109.359 E0.00329
G1 X137.707 Y109.351 F10800.000
G1 F1200
G1 X137.552 Y109.564 E0.00825
G1 X137.469 Y109.634 E0.00340
G1 X137.268 Y109.739 E0.00713
G1 X137.120 Y109.780 E0.00480
G1 X136.992 Y109.790 E0.00404
G1 X129.017 Y109.790 E0.25006
G1 X128.748 Y109.748 E0.00851
G1 X128.649 Y109.707 E0.00336
G1 X128.436 Y109.552 E0.00825
G1 X128.366 Y109.469 E0.00340
G1 X128.261 Y109.268 E0.00713
G1 X128.220 Y109.120 E0.00480
G1 X128.210 Y108.992 E0.00404
G1 X128.210 Y101.017 E0.25006
G1 X128.252 Y100.748 E0.00851
G1 X128.293 Y100.649 E0.00336
G1 X128.443 Y100.443 E0.00799
G1 X128.649 Y100.293 E0.00799
G1 X128.748 Y100.252 E0.00336
G1 X129.016 Y100.210 E0.00851
G1 X137.096 Y100.219 E0.25332
G1 X137.351 Y100.293 E0.00833
G1 X137.564 Y100.448 E0.00825
G1 X137.633 Y100.530 E0.00336
G1 X137.749 Y100.757 E0.00799
G1 X137.790 Y101.017 E0.00825
G1 X137.790 Y108.983 E0.24980
G1 X137.729 Y109.295 E0.00996
G1 X137.445 Y109.377 F10800.000
G1 F8640
G1 X137.552 Y109.564 E-0.07431
G1 X137.469 Y109.634 E-0.02503
G1 X137.268 Y109.739 E-0.05251
G1 X137.120 Y109.780 E-0.03537
G1 X136.992 Y109.790 E-0.02975
G1 X134.640 Y109.790 E-0.54304
G1 E-0.04000 F2100.00000
G1 Z0.800 F10800.000
G1 X137.300 Y101.676
G1 Z0.200
G1 E0.80000 F2100.00000
G1 F1200
G1 X136.502 Y100.878 E0.03613
G1 X135.957 Y100.878 E0.01746
G1 X137.130 Y102.051 E0.05313
G1 X137.130 Y102.596 E0.01744
G1 X135.412 Y100.877 E0.07782
G1 X134.866 Y100.877 E0.01746
G1 X137.130 Y103.140 E0.10251
G1 X137.130 Y103.685 E0.01744
G1 X134.321 Y100.876 E0.12720
G1 X133.776 Y100.875 E0.01746
G1 X137.130 Y104.230 E0.15189
G1 X137.130 Y104.774 E0.01744
G1 X133.231 Y100.875 E0.17658
G1 X132.685 Y100.874 E0.01746
G1 X137.130 Y105.319 E0.20127
G1 X137.130 Y105.863 E0.01744
G1 X132.140 Y100.873 E0.22596
G1 X131.595 Y100.873 E0.01746
G1 X137.130 Y106.408 E0.25065
G1 X137.130 Y106.953 E0.01744
G1 X131.050 Y100.872 E0.27534
G1 X130.505 Y100.872 E0.01746
G1 X137.130 Y107.497 E0.30003
G1 X137.130 Y108.042 E0.01744
G1 X129.959 Y100.871 E0.32472
G1 X129.414 Y100.870 E0.01746
G1 X137.130 Y108.586 E0.34941
G1 X137.130 Y108.932 E0.01105
G1 X137.113 Y109.040 E0.00353
G1 X137.083 Y109.084 E0.00169
G1 X128.916 Y100.917 E0.36982
G1 X128.887 Y100.959 E0.00164
G1 X128.870 Y101.068 E0.00355
G1 X128.870 Y101.415 E0.01111
G1 X136.585 Y109.130 E0.34936
G1 X136.040 Y109.130 E0.01744
G1 X128.870 Y101.960 E0.32470
G1 X128.870 Y102.505 E0.01744
G1 X135.495 Y109.130 E0.30004
G1 X134.951 Y109.130 E0.01744
G1 X128.870 Y103.049 E0.27537
G1 X128.870 Y103.594 E0.01744
G1 X134.406 Y109.130 E0.25071
G1 X133.862 Y109.130 E0.01744
G1 X128.870 Y104.138 E0.22605
G1 X128.870 Y104.683 E0.01744
G1 X133.317 Y109.130 E0.20139
G1 X132.772 Y109.130 E0.01744
G1 X128.870 Y105.228 E0.17673
G1 X128.870 Y105.772 E0.01744
G1 X132.228 Y109.130 E0.15206
G1 X131.683 Y109.130 E0.01744
G1 X128.870 Y106.317 E0.12740
G1 X128.870 Y106.861 E0.01744
G1 X131.139 Y109.130 E0.10274
G1 X130.594 Y109.130 E0.01744
G1 X128.870 Y107.406 E0.07808
G1 X128.870 Y107.951 E0.01744
G1 X130.049 Y109.130 E0.05342
G1 X129.505 Y109.130 E0.01744
G1 X128.700 Y108.326 E0.03644
G1 F8640
G1 X129.505 Y109.130 E-0.26275
G1 X130.049 Y109.130 E-0.12575
G1 X128.912 Y107.992 E-0.37150
G1 E-0.04000 F2100.00000
G1 Z0.800 F10800.000
G1 X121.273 Y109.306
G1 Z0.200
G1 E0.80000 F2100.00000
G1 F1200
G1 X121.129 Y109.387 E0.00517
G1 X120.977 Y109.413 E0.00484
G1 X113.046 Y109.413 E0.24866
G1 X112.851 Y109.382 E0.00618
G1 X112.694 Y109.273 E0.00600
G1 X112.613 Y109.129 E0.00517
G1 X112.587 Y108.977 E0.00484
G1 X112.587 Y101.046 E0.24866
G1 X112.618 Y100.851 E0.00618
G1 X112.713 Y100.713 E0.00526
G1 X112.851 Y100.618 E0.00526
G1 X113.046 Y100.587 E0.00617
G1 X121.057 Y100.596 E0.25118
G1 X121.165 Y100.625 E0.00351
G1 X121.306 Y100.727 E0.00545
G1 X121.386 Y100.875 E0.00526
G1 X121.413 Y101.046 E0.00545
G1 X121.413 Y108.954 E0.24794
G1 X121.382 Y109.149 E0.00618
G1 X121.308 Y109.257 E0.00412
G1 X121.707 Y109.351 F10800.000
G1 F1200
G1 X121.552 Y109.564 E0.00825
G1 X121.469 Y109.634 E0.00340
G1 X121.268 Y109.739 E0.00713
G1 X121.120 Y109.780 E0.00480
G1 X120.992 Y109.790 E0.00404
G1 X113.017 Y109.790 E0.25006
G1 X112.748 Y109.748 E0.00851
G1 X112.649 Y109.707 E0.00336
G1 X112.436 Y109.552 E0.00825
G1 X112.366 Y109.469 E0.00340
G1 X112.261 Y109.268 E0.00713
G1 X112.220 Y109.120 E0.00480
G1 X112.210 Y108.992 E0.00404
G1 X112.210 Y101.017 E0.25006
G1 X112.252 Y100.748 E0.00851
G1 X112.293 Y100.649 E0.00336
G1 X112.443 Y100.443 E0.00799
G1 X112.649 Y100.293 E0.00799
G1 X112.748 Y100.252 E0.00336
G1 X113.016 Y100.210 E0.00851
G1 X121.096 Y100.219 E0.25332
G1 X121.351 Y100.293 E0.00833
G1 X121.564 Y100.448 E0.00825
G1 X121.633 Y100.530 E0.00336
G1 X121.749 Y100.757 E0.00799
G1 X121.790 Y101.017 E0.00825
G1 X121.790 Y108.983 E0.24980
G1 X121.729 Y109.295 E0.00996
G1 X121.445 Y109.377 F10800.000
G1 F8640
G1 X121.552 Y109.564 E-0.07431
G1 X121.469 Y109.634 E-0.02503
G1 X121.268 Y109.739 E-0.05251
G1 X121.120 Y109.780 E-0.03537
G1 X120.992 Y109.790 E-0.02975
G1 X118.640 Y109.790 E-0.54304
G1 E-0.04000 F2100.00000
G1 Z0.800 F10800.000
G1 X121.300 Y101.676
G1 Z0.200
G1 E0.80000 F2100.00000
G1 F1200
G1 X120.502 Y100.878 E0.03613
G1 X119.957 Y100.878 E0.01746
G1 X121.130 Y102.051 E0.05313
G1 X121.130 Y102.596 E0.01744
G1 X119.412 Y100.877 E0.07782
G1 X118.866 Y100.877 E0.01746
G1 X121.130 Y103.140 E0.10251
G1 X121.130 Y103.685 E0.01744
G1 X118.321 Y100.876 E0.12720
G1 X117.776 Y100.875 E0.01746
G1 X121.130 Y104.230 E0.15189
G1 X121.130 Y104.774 E0.01744
G1 X117.231 Y100.875 E0.17658
G1 X116.685 Y100.874 E0.01746
G1 X121.130 Y105.319 E0.20127
G1 X121.130 Y105.863 E0.01744
G1 X116.140 Y100.873 E0.22596
G1 X115.595 Y100.873 E0.01746
G1 X121.130 Y106.408 E0.25065
G1 X121.130 Y106.953 E0.01744
G1 X115.050 Y100.872 E0.27534
G1 X114.505 Y100.872 E0.01746
G1 X121.130 Y107.497 E0.30003
G1 X121.130 Y108.042 E0.01744
G1 X113.959 Y100.871 E0.32472
G1 X113.414 Y100.870 E0.01746
G1 X121.130 Y108.586 E0.34941
G1 X121.130 Y108.932 E0.01105
G1 X121.113 Y109.040 E0.00353
G1 X121.083 Y109.084 E0.00169
G1 X112.916 Y100.917 E0.36982
G1 X112.887 Y100.959 E0.00164
G1 X112.870 Y101.068 E0.00355
G1 X112.870 Y101.415 E0.01111
G1 X120.585 Y109.130 E0.34936
G1 X120.040 Y109.130 E0.01744
G1 X112.870 Y101.960 E0.32470
G1 X112.870 Y102.505 E0.01744
G1 X119.495 Y109.130 E0.30004
G1 X118.951 Y109.130 E0.01744
G1 X112.870 Y103.049 E0.27537
G1 X112.870 Y103.594 E0.01744
G1 X118.406 Y109.130 E0.25071
G1 X117.862 Y109.130 E0.01744
G1 X112.870 Y104.138 E0.22605
G1 X112.870 Y104.683 E0.01744
G1 X117.317 Y109.130 E0.20139
G1 X116.772 Y109.130 E0.01744
G1 X112.870 Y105.228 E0.17673
G1 X112.870 Y105.772 E0.01744
G1 X116.228 Y109.130 E0.15206
G1 X115.683 Y109.130 E0.01744
G1 X112.870 Y106.317 E0.12740
G1 X112.870 Y106.861 E0.01744
G1 X115.139 Y109.130 E0.10274
G1 X114.594 Y109.130 E0.01744
G1 X112.870 Y107.406 E0.07808
G1 X112.870 Y107.951 E0.01744
G1 X114.049 Y109.130 E0.05342
G1 X113.505 Y109.130 E0.01744
G1 X112.700 Y108.326 E0.03644
M106 S255
;BEFORE_LAYER_CHANGE
G92 E0.0
;0.35


G1 F8640
G1 X113.505 Y109.130 E-0.26275
G1 X114.049 Y109.130 E-0.12575
G1 X112.912 Y107.992 E-0.37150
G1 E-0.04000 F2100.00000
G1 Z0.800 F10800.000
;AFTER_LAYER_CHANGE
;0.35
M104 S205 ; set temperature
M900 K0
G1 E-2.20000 F2100.00000
G1 X181.390 Y154.527 F10800.000
G1 Z0.350
G1 E3.00000 F2100.00000
;--------------------
; CP EMPTY GRID START
; layer #2
G1 X180.890 Y154.527
G1 Y155.027
G1 Y136.687 E0.5350 F2900
G1 X240.890 E1.7504
G1 Y155.027 E0.5350
G1 X180.890 E1.7504
G1 X181.390
G1 Y154.527
G1 Y137.187 E0.5059
G1 X240.390 E1.7213
G1 Y154.527 E0.5059
G1 X181.390 E1.7213
G1 Y137.187
G1 X182.390
G1 Y154.527 E0.5059
M73 Q55 S3
G1 X191.890
G1 Y137.187 E0.5059
G1 X201.390
G1 Y154.527 E0.5059
G1 X210.890
G1 Y137.187 E0.5059
G1 X220.390
G1 Y154.527 E0.5059
G1 X229.890
G1 Y137.187 E0.5059
M73 P56 R3
G1 X239.390
G1 Y154.527 E0.5059
G1 X182.390 F7200
; CP EMPTY GRID END
;------------------







M900 K30 ; Filament gcode
G1 F8640
G1 X179.099 Y154.527 E-0.76000
G1 E-0.04000 F2100.00000
G1 Z0.950 F10800.000
G1 X140.517 Y109.585
G1 Z0.350
G1 E0.80000 F2100.00000
G1 F3000
G1 X140.254 Y110.454 E0.02195
G1 X139.866 Y111.122 E0.01867
G1 X139.230 Y111.780 E0.02214
G1 X138.569 Y112.202 E0.01896
G1 X137.748 Y112.484 E0.02100
G1 X137.035 Y112.565 E0.01734
G1 X112.854 Y112.561 E0.58483
G1 X111.894 Y112.390 E0.02358
G1 X111.011 Y111.959 E0.02376
G1 X110.360 Y111.394 E0.02086
G1 X109.798 Y110.569 E0.02414
G1 X109.557 Y109.919 E0.01677
G1 X109.436 Y109.087 E0.02034
G1 X109.468 Y100.516 E0.20727
G1 X109.667 Y99.738 E0.01943
G1 X110.111 Y98.910 E0.02271
G1 X110.758 Y98.230 E0.02271
G1 X111.431 Y97.798 E0.01934
G1 X112.248 Y97.517 E0.02091
G1 X112.961 Y97.435 E0.01734
G1 X137.004 Y97.434 E0.58148
G1 X137.613 Y97.488 E0.01478
G1 X138.240 Y97.658 E0.01572
G1 X138.792 Y97.920 E0.01477
G1 X139.409 Y98.373 E0.01853
G1 X139.847 Y98.854 E0.01572
G1 X140.174 Y99.374 E0.01487
G1 X140.404 Y99.940 E0.01477
G1 X140.539 Y100.572 E0.01563
G1 X140.517 Y109.525 E0.21654
; PURGING FINISHED
G1 F8640
G1 X140.254 Y110.454 E-0.22290
G1 X139.866 Y111.122 E-0.17828
G1 X139.230 Y111.780 E-0.21142
G1 X138.691 Y112.124 E-0.14740
G1 E-0.04000 F2100.00000
G1 Z0.950 F10800.000
G1 X137.218 Y109.280
G1 Z0.350
G1 E0.80000 F2100.00000
M204 S800
G1 F1500
G1 X137.153 Y109.316 E0.00193
G1 X136.975 Y109.357 E0.00478
G1 X129.051 Y109.357 E0.20647
G1 X128.867 Y109.328 E0.00485
G1 X128.753 Y109.247 E0.00364
G1 X128.689 Y109.159 E0.00285
